X: 31646
T: Parisian
R: polka
M: 2/4
K: Gmajor
dB gf/e/|d^c e>d|AF dc/B/|A^A BG|
dB gf/e/|d^d fe|de/d/ c/A/d|B/A/G g z:|
[K: Dmajor] FA ed/c/|df ed|ce ba/^g/|ag ^de|
FA ed/c/|df ed|ce ba/^g/|af d z||
[K: Cmajor] EE/E/ EG|FD A2|BA/G/ FE|AG ^DE|
EE/E/ EG|FD A2|BA/G/ FD|dc c z||

